fs/dentist_28_filled.svg

<svg viewBox="0 0 28 28" fill="none" xmlns="http://www.w3.org/2000/svg" height="1em" width="1em">
  <path d="M12.3561 4.644C10.9172 3.4871 9.32235 3.24183 7.89236 3.52117C6.486 3.79589 5.24257 4.57424 4.4153 5.46951L4.41328 5.47172C3.48603 6.48326 2.57748 7.74735 2.50679 9.61731C2.46441 10.5484 2.59096 11.8946 3.31894 12.8987L3.32061 12.901C4.10222 13.9706 4.5557 14.6068 4.78142 15.2251C5.03028 15.9097 5.03611 16.5936 5.04433 17.5587L5.04617 17.7643C5.05185 18.7584 5.26173 20.1212 5.76659 21.3603C6.2654 22.5845 7.1128 23.8294 8.48387 24.3412L8.51894 24.3542L8.55514 24.3638C9.36223 24.5763 10.1069 24.4979 10.6677 23.9732C11.1633 23.5094 11.3699 22.8174 11.4861 22.1916C11.5926 21.6174 11.6459 20.9494 11.6983 20.292L11.7184 20.0416C11.7799 19.2839 11.8508 18.527 12 17.8132C12.4195 15.8409 13.0063 15.4862 13.2864 15.4014C13.9628 15.2273 14.3882 15.3159 14.676 15.4799C14.9825 15.6547 15.2506 15.9821 15.474 16.4928C15.934 17.5444 16.0656 19.0288 16.1788 20.3715C16.2914 21.7077 16.5734 22.9151 17.1068 23.6863C17.3833 24.0862 17.7739 24.434 18.3011 24.5475C18.8333 24.662 19.3513 24.5051 19.8107 24.21C21.5111 23.124 22.4952 20.874 22.7632 17.8855C22.8912 16.4621 23.0384 15.8057 23.2593 15.2712C23.3722 14.998 23.5119 14.7386 23.7055 14.4051C23.7625 14.3068 23.825 14.2007 23.8925 14.0863C24.0479 13.8228 24.2297 13.5143 24.4305 13.1551C24.81 12.4791 25.424 11.2565 25.494 9.82514C25.5665 8.34161 25.0494 6.70133 23.299 5.27631C21.6181 3.91125 20.0558 3.41506 18.6623 3.48958C17.2808 3.56346 16.1766 4.1924 15.3877 4.86935L15.367 4.88716L15.3476 4.90643C14.5808 5.66811 14.2213 5.80917 13.9839 5.79917C13.7164 5.78791 13.2875 5.57934 12.4196 4.70127L12.3895 4.67082L12.3561 4.644ZM18.5261 7.20886C19.2784 7.20886 20.0398 7.43409 20.6433 7.97098C21.2519 8.51234 21.6285 9.30681 21.7228 10.3086C21.7616 10.721 21.4588 11.0868 21.0464 11.1256C20.634 11.1644 20.2682 10.8615 20.2294 10.4491C20.1637 9.75091 19.9203 9.33539 19.6464 9.09174C19.3675 8.84364 18.9838 8.70886 18.5261 8.70886C18.1119 8.70886 17.7761 8.37308 17.7761 7.95886C17.7761 7.54465 18.1119 7.20886 18.5261 7.20886Z" fill="#212121"/>
</svg>

<svg viewBox="0 0 28 28" fill="none" xmlns="http://www.w3.org/2000/svg" height="1em" width="1em">
  <path d="M12.356 4.644c-1.439-1.157-3.034-1.402-4.464-1.123-1.406.275-2.65 1.053-3.477 1.949l-.002.002c-.927 1.011-1.836 2.275-1.906 4.145-.043.931.084 2.278.812 3.282l.002.002c.781 1.07 1.235 1.706 1.46 2.324.25.685.255 1.369.263 2.334l.002.205c.006.994.216 2.357.72 3.596.5 1.224 1.347 2.47 2.718 2.981l.035.013.036.01c.807.212 1.552.134 2.113-.39.495-.465.702-1.157.818-1.782.107-.575.16-1.243.212-1.9l.02-.25c.062-.758.133-1.515.282-2.229.42-1.972 1.006-2.327 1.286-2.412.677-.174 1.102-.085 1.39.079.306.175.575.502.798 1.013.46 1.051.592 2.536.705 3.879.112 1.336.394 2.543.928 3.314.276.4.667.748 1.194.861.532.115 1.05-.042 1.51-.337 1.7-1.086 2.684-3.336 2.952-6.325.128-1.423.275-2.08.496-2.614.113-.273.253-.532.447-.866l.186-.319c.156-.263.338-.572.538-.93.38-.677.994-1.9 1.064-3.33.073-1.484-.445-3.125-2.195-4.55-1.68-1.365-3.243-1.86-4.637-1.786-1.381.073-2.485.702-3.274 1.38l-.021.017-.02.02c-.766.761-1.126.902-1.363.892-.268-.011-.697-.22-1.564-1.098l-.03-.03-.034-.027Zm6.17 2.565c.752 0 1.514.225 2.117.762.609.541.985 1.336 1.08 2.338a.75.75 0 1 1-1.494.14c-.065-.698-.309-1.114-.583-1.357-.279-.248-.662-.383-1.12-.383a.75.75 0 0 1 0-1.5Z" fill="#212121"/>
</svg>
